X:5031
T:Farewell
% Nottingham Music Database
P:AABA
S:Geoff Bocking, via EF
M:6/8
K:G
P:A
B/2c/2|\
P:segno
"G"ded g2g|"G"BcB d2d|"G"G2G "D7/a"AGA|"G/b"BGB "C"ABc|
"G"ded g2"f#"g|"Em"BcB "Bm"d2d|"C"G2G "D7"AGA|"G"G3 -G2:|
P:B
B/2c/2|"G"ded "D7"cAc|"G"BcB "D7"AFA|"G"GAG BAG|"Am"dcB "D7"B2A|
"G"ded "D7"cAc|"G"BcB "D7"AFA|"G"GAG BAG|"G"dBG "D7"AB
P:D.S.
c|
